X:1
T:#
T:The sorrows of my heart - Boyce
T:#
%%score [ 1 2 3 ] { ( 4 6 ) | 5 }
L:1/8
M:3/4
K:D
V:1 treble nm="Alto" snm="A"
V:2 treble-8 nm="Tenor" snm="T"
V:3 bass nm="Bass" snm="B"
V:4 treble nm="Left hand"
V:6 treble 
V:5 bass 
V:1
"^The Sorrows of my Heart""^Arranged for ATB by James Gibb""^Psalm 25 vv 16-17" z6 | z6 | z4 A2 | %3
w: ||The|
 F>E F2 G2 | A2 B3 (c/"^William Boyce \n(1710-1779)"d/) | (c>B) A2 A2- | A2 D2 G2 | F2 B4- | %8
w: sor- rows of my|heart are en\- *|larg\- * ed, O|* bring thou|me out|
 B2 (AB/c/) (BA) | (^G>F) G2 z2 | z6 | z4 d2- | d2 c2 B2 | c4 E2- | E2 D2 F2 | E2 (A>^G) A2- | %16
w: * of * * my *|trou\- * bles,||O|* bring thou|me, O|* bring thou|me out * of|
 Ad (c2 B>A) | A4 z2 | z4 A2 | F>E F2 G2 | A2 B3 (c/d/) | (c>B) A2 z2 | B2 B2 B2 | A4 A2 | %24
w: * my trou\- * *|bles.|The|sor- rows of my|heart are en\- *|larg\- * ed,|O bring thou|me out|
 (B>A G2) F2 | F2 E2 z2 | z6 | z4 B2- | Bd (cB) c^G | A>^G F2 z2 | z2 B3 A | ^GA B2 G2 | A2 A3 G | %33
w: of * * my|trou- bles.||Look|* up- on * my ad-|ver- si- ty|and for-|give me all my|sin, all my|
 F2 z2 A2 | B3 B cd | c3 A F2- | FG (F2 E>)D | D4 z2 | z6 | z6 |] %40
w: sin, for-|give me all my|sin, for- give|* me all * my|sin.|||
V:2
 z6 | z6 | z6 | z6 | z6 | z6 | z6 | z6 | z6 | z4 E2 | C>B, C2 D2 | E2 F3 (^G/A/) | (^G>F) E2 B2- | %13
w: |||||||||The|sor- rows of my|heart are en\- *|larg\- * ed, O|
 B2 A2 ^G2 | F4 d2- | d2 c>B c2- | cB (A2 ^G>)A | A2 A2 z2 | z6 | z6 | z6 | z4 A2- | A2 C2 G2 | %23
w: * bring thou|me, O|* bring thou me|* out of * my|trou- bles.||||O|* bring thou|
 G2 (F>E) (F2- | F2 E2) D2 | D2 C2 A2- | A=c (BA) BF | G>F E2 z2 | z6 | z2 F3 E | ^DE F2 D2 | %31
w: me out * of|* * my|trou- bles. Look|* up- on * my ad-|ver- si- ty||and for-|give me all my|
 E2 E3 D | CD E2 C2 | D2 F3 E | DD G3 F | E3 C D2- | DE (D2 C>)D | D4 z2 | z6 | z6 |] %40
w: sin, and for-|give me all my|sin, and for-|give me all my|sin, for- give|* me all * my|sin.|||
V:3
 z6 | z6 | z6 | z4 E,2 | F,>F, G,2 E,2 | A,3 G, F,2 | B,,4 C,2 | D,3 C, B,,2 | C,4 D,2 | %9
w: |||The|sor- rows of my|heart are en-|larg- ed,|bring thou me|out of|
 E,2 E,2 z2 | z6 | z6 | z6 | z4 C,2 | D,4 B,,2 | ^G,,2 E,,2 A,,2 | D,2 E,4 | A,,4 z2 | z6 | %19
w: trou- bles.||||O|bring thou|me out of|my trou-|bles.||
 z4 E,2 | (F,2 G,2) E,2 | A,4 F,2 | (G,3 F,) E,>D, | C,4 D,2 | z6 | A,2 A,G, F,>E, | ^D,4 B,,2 | %27
w: The|sor\- * rows|of my|heart * are en-|larg- ed,||Bring me out of my|trou- bles.|
 E,4 D,2 | C,4 =F,2 | F,2 A,2 F,2 | B,2 ^D,2 B,,2 | E,2 ^G,2 E,2 | A,2 C,2 A,,2 | D,4 D,2 | %34
w: Look up-|on my|ad- ver- si-|ty and for-|give all my|sin, and for-|give me|
 G,4 E,2 | A,3 z z B, | G,2 A,2 A,,2 | D,4 z2 | z6 | z6 |] %40
w: all my|sin, for-|give all my|sin.|||
V:4
 z2 z A [B,DF]2- | [B,DF][EG] [DF]2 [CE]>D | D4 z2 | [F,A,D]4 C2 | D4 [EG]2 | z6 | d4 e2 | A2 G4 | %8
 E2 A2 F2 | x6 | A6- | A2 [FB]4 | ^G4 B2- | B2 A2 ^G2 | F4 B2 | E2 E4 | F2 E4- | E4 z2 | %18
 D>C D2 E2 | F4 x2 | D4 [EG]2 | E4 [DA]2- | [DA]4 [EG]2- | [EG]2 F>E F2- | F2 E2 D2- | %25
 [DF]2 [CE]2 A>G | F4 ^D2 | [G,B,E]4 ([B,FB]2 | [C=FB]4) C2- | F4 [Ac]2 | B4 ^d2 | e4- ed | %32
 cd e2 c2 | [Fd]4 [FA]2 | [B,DG]4 [CG][DF] | [CE]3 z D2- | DE [DF]2 [CE]>D | [F,A,D]3 A [B,DFd]2- | %38
 [B,DFd][EG] [DF]2 [CE]>D | D6 |] %40
V:5
 z4 B,,2 | G,,2 [A,,A,]4 | [D,F,A,]4 z2 | D,4 [E,G,]2 | [F,A,]2 [G,B,]2 [E,B,]2 | A,3 G, F,2 | %6
 B,,4 C,2 | D,3 C, B,,2 | C,4 D,2 | E,4 z2 | A,,4 B,,2 | C,2 D,2 B,,2 | E,4 ^G,2 | A,4 C,2 | %14
 [D,A,]4 B,,2 | ^G,,2 E,,2 A,,2 | D,2 E,2 E,,2 | A,,4 A,2 | F,>E, F,2 C,2 | D,4 E,2 | %20
 [F,A,]2 [G,B,]2 [E,B,]2 | [A,C]4 F,2 | G,3 F, E,>D, | C,4 D,2 | G,,6 | A,,3 G, F,>E, | ^D,4 B,,2 | %27
 E,4 D,2 | C,4 =F,2 | F,2 A,2 F,2 | B,2 ^D,2 B,,2 | E,2 ^G,2 E,2 | A,2 C,2 A,,2 | D,4 D,2 | %34
 G,4 E,2 | A,3 z B,2 | G,2 A,2 A,,2 | D,4 B,2 | G,2 A,2 A,,2 | [D,F,A,]6 |] %40
V:6
 x6 | x6 | x6 | x6 | x6 | [CE]4 [DA]2 | A3 B/A/ G2 | F3 E D2 | E4 DC | [^G,B,E]4 z2 | [CE]4 D2 | %11
 E2 B,>C D2 | D2 C2 [B,E]2- | [CE]4 ([CE]2 | E2) D2 [DF]2- | [DB]2 [CA]>[B,^G] ([CA]2 | %16
 C)B, [A,C]2- [^G,B,]2 | [A,C]4 C2 | A,4 A,2- | A,4 [G,C]2 | x6 | x6 | B,6 | A,6 | B6 | B4 x2 | %26
 A,6 | x6 | x4 ^G2 | C4 FE | ^DE F2 BA | ^GA B2 G2 | A4- AG | x6 | x6 | x6 | x6 | x6 | x6 | x6 |] %40

